bernoullicharts/arcsin_x_2_mean.svg

<?xml version="1.0" encoding="utf-8" standalone="no"?>
<!DOCTYPE svg PUBLIC "-//W3C//DTD SVG 1.1//EN"
  "http://www.w3.org/Graphics/SVG/1.1/DTD/svg11.dtd">
<!-- Created with matplotlib (https://matplotlib.org/) -->
<svg height="345.6pt" version="1.1" viewBox="0 0 460.8 345.6" width="460.8pt" xmlns="http://www.w3.org/2000/svg" xmlns:xlink="http://www.w3.org/1999/xlink">
 <defs>
  <style type="text/css">
*{stroke-linecap:butt;stroke-linejoin:round;}
  </style>
 </defs>
 <g id="figure_1">
  <g id="patch_1">
   <path d="M 0 345.6 
L 460.8 345.6 
L 460.8 0 
L 0 0 
z
" style="fill:#ffffff;"/>
  </g>
  <g id="axes_1">
   <g id="patch_2">
    <path d="M 57.6 307.584 
L 414.72 307.584 
L 414.72 41.472 
L 57.6 41.472 
z
" style="fill:#ffffff;"/>
   </g>
   <g id="matplotlib.axis_1">
    <g id="xtick_1">
     <g id="line2d_1">
      <defs>
       <path d="M 0 0 
L 0 3.5 
" id="m6124718d2a" style="stroke:#000000;stroke-width:0.8;"/>
      </defs>
      <g>
       <use style="stroke:#000000;stroke-width:0.8;" x="73.800255" xlink:href="#m6124718d2a" y="307.584"/>
      </g>
     </g>
     <g id="text_1">
      <text style="font-family:DejaVu Sans;font-size:10px;font-style:normal;font-weight:normal;text-anchor:middle;" transform="rotate(-0, 73.800255, 322.182437)" x="73.800255" y="322.182437">0.0</text>
     </g>
    </g>
    <g id="xtick_2">
     <g id="line2d_2">
      <g>
       <use style="stroke:#000000;stroke-width:0.8;" x="138.744153" xlink:href="#m6124718d2a" y="307.584"/>
      </g>
     </g>
     <g id="text_2">
      <text style="font-family:DejaVu Sans;font-size:10px;font-style:normal;font-weight:normal;text-anchor:middle;" transform="rotate(-0, 138.744153, 322.182437)" x="138.744153" y="322.182437">0.2</text>
     </g>
    </g>
    <g id="xtick_3">
     <g id="line2d_3">
      <g>
       <use style="stroke:#000000;stroke-width:0.8;" x="203.688051" xlink:href="#m6124718d2a" y="307.584"/>
      </g>
     </g>
     <g id="text_3">
      <text style="font-family:DejaVu Sans;font-size:10px;font-style:normal;font-weight:normal;text-anchor:middle;" transform="rotate(-0, 203.688051, 322.182437)" x="203.688051" y="322.182437">0.4</text>
     </g>
    </g>
    <g id="xtick_4">
     <g id="line2d_4">
      <g>
       <use style="stroke:#000000;stroke-width:0.8;" x="268.631949" xlink:href="#m6124718d2a" y="307.584"/>
      </g>
     </g>
     <g id="text_4">
      <text style="font-family:DejaVu Sans;font-size:10px;font-style:normal;font-weight:normal;text-anchor:middle;" transform="rotate(-0, 268.631949, 322.182437)" x="268.631949" y="322.182437">0.6</text>
     </g>
    </g>
    <g id="xtick_5">
     <g id="line2d_5">
      <g>
       <use style="stroke:#000000;stroke-width:0.8;" x="333.575847" xlink:href="#m6124718d2a" y="307.584"/>
      </g>
     </g>
     <g id="text_5">
      <text style="font-family:DejaVu Sans;font-size:10px;font-style:normal;font-weight:normal;text-anchor:middle;" transform="rotate(-0, 333.575847, 322.182437)" x="333.575847" y="322.182437">0.8</text>
     </g>
    </g>
    <g id="xtick_6">
     <g id="line2d_6">
      <g>
       <use style="stroke:#000000;stroke-width:0.8;" x="398.519745" xlink:href="#m6124718d2a" y="307.584"/>
      </g>
     </g>
     <g id="text_6">
      <text style="font-family:DejaVu Sans;font-size:10px;font-style:normal;font-weight:normal;text-anchor:middle;" transform="rotate(-0, 398.519745, 322.182437)" x="398.519745" y="322.182437">1.0</text>
     </g>
    </g>
    <g id="text_7">
     <text style="font-family:DejaVu Sans;font-size:10px;font-style:normal;font-weight:normal;text-anchor:middle;" transform="rotate(-0, 236.16, 335.860562)" x="236.16" y="335.860562">Input Coin's Heads Probability (λ)</text>
    </g>
   </g>
   <g id="matplotlib.axis_2">
    <g id="ytick_1">
     <g id="line2d_7">
      <defs>
       <path d="M 0 0 
L -3.5 0 
" id="md89a8342ff" style="stroke:#000000;stroke-width:0.8;"/>
      </defs>
      <g>
       <use style="stroke:#000000;stroke-width:0.8;" x="57.6" xlink:href="#md89a8342ff" y="295.488"/>
      </g>
     </g>
     <g id="text_8">
      <text style="font-family:DejaVu Sans;font-size:10px;font-style:normal;font-weight:normal;text-anchor:end;" transform="rotate(-0, 50.6, 299.287219)" x="50.6" y="299.287219">0.0</text>
     </g>
    </g>
    <g id="ytick_2">
     <g id="line2d_8">
      <g>
       <use style="stroke:#000000;stroke-width:0.8;" x="57.6" xlink:href="#md89a8342ff" y="264.40595"/>
      </g>
     </g>
     <g id="text_9">
      <text style="font-family:DejaVu Sans;font-size:10px;font-style:normal;font-weight:normal;text-anchor:end;" transform="rotate(-0, 50.6, 268.205169)" x="50.6" y="268.205169">0.1</text>
     </g>
    </g>
    <g id="ytick_3">
     <g id="line2d_9">
      <g>
       <use style="stroke:#000000;stroke-width:0.8;" x="57.6" xlink:href="#md89a8342ff" y="233.3239"/>
      </g>
     </g>
     <g id="text_10">
      <text style="font-family:DejaVu Sans;font-size:10px;font-style:normal;font-weight:normal;text-anchor:end;" transform="rotate(-0, 50.6, 237.123118)" x="50.6" y="237.123118">0.2</text>
     </g>
    </g>
    <g id="ytick_4">
     <g id="line2d_10">
      <g>
       <use style="stroke:#000000;stroke-width:0.8;" x="57.6" xlink:href="#md89a8342ff" y="202.241849"/>
      </g>
     </g>
     <g id="text_11">
      <text style="font-family:DejaVu Sans;font-size:10px;font-style:normal;font-weight:normal;text-anchor:end;" transform="rotate(-0, 50.6, 206.041068)" x="50.6" y="206.041068">0.3</text>
     </g>
    </g>
    <g id="ytick_5">
     <g id="line2d_11">
      <g>
       <use style="stroke:#000000;stroke-width:0.8;" x="57.6" xlink:href="#md89a8342ff" y="171.159799"/>
      </g>
     </g>
     <g id="text_12">
      <text style="font-family:DejaVu Sans;font-size:10px;font-style:normal;font-weight:normal;text-anchor:end;" transform="rotate(-0, 50.6, 174.959018)" x="50.6" y="174.959018">0.4</text>
     </g>
    </g>
    <g id="ytick_6">
     <g id="line2d_12">
      <g>
       <use style="stroke:#000000;stroke-width:0.8;" x="57.6" xlink:href="#md89a8342ff" y="140.077749"/>
      </g>
     </g>
     <g id="text_13">
      <text style="font-family:DejaVu Sans;font-size:10px;font-style:normal;font-weight:normal;text-anchor:end;" transform="rotate(-0, 50.6, 143.876968)" x="50.6" y="143.876968">0.5</text>
     </g>
    </g>
    <g id="ytick_7">
     <g id="line2d_13">
      <g>
       <use style="stroke:#000000;stroke-width:0.8;" x="57.6" xlink:href="#md89a8342ff" y="108.995699"/>
      </g>
     </g>
     <g id="text_14">
      <text style="font-family:DejaVu Sans;font-size:10px;font-style:normal;font-weight:normal;text-anchor:end;" transform="rotate(-0, 50.6, 112.794918)" x="50.6" y="112.794918">0.6</text>
     </g>
    </g>
    <g id="ytick_8">
     <g id="line2d_14">
      <g>
       <use style="stroke:#000000;stroke-width:0.8;" x="57.6" xlink:href="#md89a8342ff" y="77.913649"/>
      </g>
     </g>
     <g id="text_15">
      <text style="font-family:DejaVu Sans;font-size:10px;font-style:normal;font-weight:normal;text-anchor:end;" transform="rotate(-0, 50.6, 81.712868)" x="50.6" y="81.712868">0.7</text>
     </g>
    </g>
    <g id="ytick_9">
     <g id="line2d_15">
      <g>
       <use style="stroke:#000000;stroke-width:0.8;" x="57.6" xlink:href="#md89a8342ff" y="46.831599"/>
      </g>
     </g>
     <g id="text_16">
      <text style="font-family:DejaVu Sans;font-size:10px;font-style:normal;font-weight:normal;text-anchor:end;" transform="rotate(-0, 50.6, 50.630817)" x="50.6" y="50.630817">0.8</text>
     </g>
    </g>
    <g id="text_17">
     <text style="font-family:DejaVu Sans;font-size:10px;font-style:normal;font-weight:normal;text-anchor:middle;" transform="rotate(-90, 28.617187, 174.528)" x="28.617187" y="174.528">Simulated Mean / Function Value</text>
    </g>
   </g>
   <g id="line2d_16">
    <path clip-path="url(#p20fce76122)" d="M 73.832727 295.472459 
L 77.112066 293.902945 
L 80.391405 292.333269 
L 83.670744 290.763272 
L 86.950083 289.192791 
L 90.229421 287.621668 
L 93.50876 286.049739 
L 96.788099 284.476843 
L 100.067438 282.902816 
L 103.346777 281.327494 
L 106.626116 279.750712 
L 109.905455 278.172302 
L 113.184793 276.592097 
L 116.464132 275.009926 
L 119.743471 273.425617 
L 123.02281 271.838996 
L 126.302149 270.249887 
L 129.581488 268.658112 
L 132.860826 267.063488 
L 136.140165 265.465832 
L 139.419504 263.864956 
L 142.698843 262.260671 
L 145.978182 260.652781 
L 149.257521 259.04109 
L 152.53686 257.425395 
L 155.816198 255.805491 
L 159.095537 254.181167 
L 162.374876 252.552208 
L 165.654215 250.918393 
L 168.933554 249.279496 
L 172.212893 247.635287 
L 175.492231 245.985526 
L 178.77157 244.32997 
L 182.050909 242.668366 
L 185.330248 241.000457 
L 188.609587 239.325975 
L 191.888926 237.644645 
L 195.168264 235.956183 
L 198.447603 234.260297 
L 201.726942 232.556682 
L 205.006281 230.845023 
L 208.28562 229.124997 
L 211.564959 227.396264 
L 214.844298 225.658473 
L 218.123636 223.911261 
L 221.402975 222.154247 
L 224.682314 220.387037 
L 227.961653 218.609218 
L 231.240992 216.820359 
L 234.520331 215.020011 
L 237.799669 213.207704 
L 241.079008 211.382944 
L 244.358347 209.545213 
L 247.637686 207.693969 
L 250.917025 205.828641 
L 254.196364 203.948626 
L 257.475702 202.053291 
L 260.755041 200.141965 
L 264.03438 198.213941 
L 267.313719 196.268468 
L 270.593058 194.30475 
L 273.872397 192.321941 
L 277.151736 190.319141 
L 280.431074 188.295389 
L 283.710413 186.249659 
L 286.989752 184.180853 
L 290.269091 182.087792 
L 293.54843 179.969209 
L 296.827769 177.823737 
L 300.107107 175.649902 
L 303.386446 173.446104 
L 306.665785 171.210607 
L 309.945124 168.941517 
L 313.224463 166.636768 
L 316.503802 164.29409 
L 319.78314 161.910987 
L 323.062479 159.484698 
L 326.341818 157.012163 
L 329.621157 154.489967 
L 332.900496 151.914283 
L 336.179835 149.280801 
L 339.459174 146.584634 
L 342.738512 143.820206 
L 346.017851 140.981105 
L 349.29719 138.0599 
L 352.576529 135.047895 
L 355.855868 131.934806 
L 359.135207 128.708324 
L 362.414545 125.353509 
L 365.693884 121.851929 
L 368.973223 118.180397 
L 372.252562 114.309059 
L 375.531901 110.198354 
L 378.81124 105.793937 
L 382.090579 101.017555 
L 385.369917 95.749108 
L 388.649256 89.786498 
L 391.928595 82.736097 
L 395.207934 73.584981 
L 398.487273 53.568 
" style="fill:none;stroke:#1f77b4;stroke-linecap:square;stroke-width:1.5;"/>
   </g>
   <g id="line2d_17">
    <path clip-path="url(#p20fce76122)" d="M 73.832727 295.488 
L 77.112066 294.244718 
L 80.391405 291.758154 
L 83.670744 292.379795 
L 86.950083 288.649949 
L 90.229421 288.649949 
L 93.50876 291.136513 
L 96.788099 290.514872 
L 100.067438 277.460411 
L 103.346777 281.190257 
L 106.626116 282.433539 
L 109.905455 281.190257 
L 113.184793 274.352206 
L 116.464132 275.595488 
L 119.743471 271.244001 
L 123.02281 273.108924 
L 126.302149 273.730565 
L 129.581488 265.027591 
L 132.860826 261.919386 
L 136.140165 266.892514 
L 139.419504 270.62236 
L 142.698843 262.541027 
L 145.978182 263.784309 
L 149.257521 261.297745 
L 152.53686 259.432822 
L 155.816198 245.135079 
L 159.095537 254.459694 
L 162.374876 249.486566 
L 165.654215 247.000002 
L 168.933554 251.351489 
L 172.212893 245.135079 
L 175.492231 244.513438 
L 178.77157 240.783592 
L 182.050909 240.783592 
L 185.330248 252.594771 
L 188.609587 243.270156 
L 191.888926 243.891797 
L 195.168264 232.080618 
L 198.447603 234.567182 
L 201.726942 237.675387 
L 205.006281 232.702259 
L 208.28562 228.972413 
L 211.564959 226.485849 
L 214.844298 237.053746 
L 218.123636 214.053029 
L 221.402975 227.10749 
L 224.682314 222.134362 
L 227.961653 227.729131 
L 231.240992 222.134362 
L 234.520331 222.756003 
L 237.799669 201.620208 
L 241.079008 217.782875 
L 244.358347 214.053029 
L 247.637686 201.620208 
L 250.917025 189.809029 
L 254.196364 198.512003 
L 257.475702 214.053029 
L 260.755041 194.782157 
L 264.03438 199.133644 
L 267.313719 194.160516 
L 270.593058 187.322465 
L 273.872397 193.538875 
L 277.151736 191.673952 
L 280.431074 189.187388 
L 283.710413 192.917234 
L 286.989752 182.349337 
L 290.269091 179.862773 
L 293.54843 184.21426 
L 296.827769 173.024722 
L 300.107107 164.321748 
L 303.386446 168.051594 
L 306.665785 182.349337 
L 309.945124 162.456825 
L 313.224463 179.862773 
L 316.503802 158.105338 
L 319.78314 169.294876 
L 323.062479 166.186671 
L 326.341818 155.618774 
L 329.621157 152.510569 
L 332.900496 143.807595 
L 336.179835 158.105338 
L 339.459174 150.645646 
L 342.738512 139.456108 
L 346.017851 137.591185 
L 349.29719 146.9158 
L 352.576529 135.104621 
L 355.855868 125.780006 
L 359.135207 138.834467 
L 362.414545 118.941955 
L 365.693884 127.644929 
L 368.973223 108.374058 
L 372.252562 127.023288 
L 375.531901 110.860622 
L 378.81124 106.509135 
L 382.090579 94.697956 
L 385.369917 94.076315 
L 388.649256 95.319597 
L 391.928595 87.238264 
L 395.207934 70.453957 
L 398.487273 54.291291 
" style="fill:none;stroke:#ff7f0e;stroke-linecap:square;stroke-width:1.5;"/>
   </g>
   <g id="patch_3">
    <path d="M 57.6 307.584 
L 57.6 41.472 
" style="fill:none;stroke:#000000;stroke-linecap:square;stroke-linejoin:miter;stroke-width:0.8;"/>
   </g>
   <g id="patch_4">
    <path d="M 414.72 307.584 
L 414.72 41.472 
" style="fill:none;stroke:#000000;stroke-linecap:square;stroke-linejoin:miter;stroke-width:0.8;"/>
   </g>
   <g id="patch_5">
    <path d="M 57.6 307.584 
L 414.72 307.584 
" style="fill:none;stroke:#000000;stroke-linecap:square;stroke-linejoin:miter;stroke-width:0.8;"/>
   </g>
   <g id="patch_6">
    <path d="M 57.6 41.472 
L 414.72 41.472 
" style="fill:none;stroke:#000000;stroke-linecap:square;stroke-linejoin:miter;stroke-width:0.8;"/>
   </g>
   <g id="text_18">
    <text style="font-family:DejaVu Sans;font-size:12px;font-style:normal;font-weight:normal;text-anchor:middle;" transform="rotate(-0, 236.16, 35.472)" x="236.16" y="35.472">Expected Value in arcsin(x)/2 Algorithm</text>
   </g>
   <g id="legend_1">
    <g id="patch_7">
     <path d="M 64.6 78.82825 
L 246.84375 78.82825 
Q 248.84375 78.82825 248.84375 76.82825 
L 248.84375 48.472 
Q 248.84375 46.472 246.84375 46.472 
L 64.6 46.472 
Q 62.6 46.472 62.6 48.472 
L 62.6 76.82825 
Q 62.6 78.82825 64.6 78.82825 
z
" style="fill:#ffffff;opacity:0.8;stroke:#cccccc;stroke-linejoin:miter;"/>
    </g>
    <g id="line2d_18">
     <path d="M 66.6 54.570437 
L 86.6 54.570437 
" style="fill:none;stroke:#1f77b4;stroke-linecap:square;stroke-width:1.5;"/>
    </g>
    <g id="line2d_19"/>
    <g id="text_19">
     <text style="font-family:DejaVu Sans;font-size:10px;font-style:normal;font-weight:normal;text-anchor:start;" transform="rotate(-0, 94.6, 58.070437)" x="94.6" y="58.070437">arcsin(x)/2</text>
    </g>
    <g id="line2d_20">
     <path d="M 66.6 69.248562 
L 86.6 69.248562 
" style="fill:none;stroke:#ff7f0e;stroke-linecap:square;stroke-width:1.5;"/>
    </g>
    <g id="line2d_21"/>
    <g id="text_20">
     <text style="font-family:DejaVu Sans;font-size:10px;font-style:normal;font-weight:normal;text-anchor:start;" transform="rotate(-0, 94.6, 72.748562)" x="94.6" y="72.748562">Simulated Mean of arcsin(x)/2</text>
    </g>
   </g>
  </g>
 </g>
 <defs>
  <clipPath id="p20fce76122">
   <rect height="266.112" width="357.12" x="57.6" y="41.472"/>
  </clipPath>
 </defs>
</svg>

<svg height="460.8" viewBox="0 0 460.8 345.6" width="614.4" xmlns="http://www.w3.org/2000/svg" xmlns:xlink="http://www.w3.org/1999/xlink"><defs><style>*{stroke-linecap:butt;stroke-linejoin:round}</style></defs><g id="figure_1"><path d="M0 345.6h460.8V0H0z" fill="#fff" id="patch_1"/><g id="axes_1"><path d="M57.6 307.584h357.12V41.472H57.6z" fill="#fff" id="patch_2"/><g id="matplotlib.axis_1"><g id="xtick_1"><g id="line2d_1"><defs><path d="M0 0v3.5" id="m6124718d2a" stroke="#000" stroke-width=".8"/></defs><use x="73.8" xlink:href="#m6124718d2a" y="307.584" stroke="#000" stroke-width=".8"/></g><text x="73.8" y="322.182" font-family="DejaVu Sans" font-size="10" font-weight="400" text-anchor="middle" id="text_1">0.0</text></g><g id="xtick_2"><use x="138.744" xlink:href="#m6124718d2a" y="307.584" stroke="#000" stroke-width=".8" id="line2d_2"/><text x="138.744" y="322.182" font-family="DejaVu Sans" font-size="10" font-weight="400" text-anchor="middle" id="text_2">0.2</text></g><g id="xtick_3"><use x="203.688" xlink:href="#m6124718d2a" y="307.584" stroke="#000" stroke-width=".8" id="line2d_3"/><text x="203.688" y="322.182" font-family="DejaVu Sans" font-size="10" font-weight="400" text-anchor="middle" id="text_3">0.4</text></g><g id="xtick_4"><use x="268.632" xlink:href="#m6124718d2a" y="307.584" stroke="#000" stroke-width=".8" id="line2d_4"/><text x="268.632" y="322.182" font-family="DejaVu Sans" font-size="10" font-weight="400" text-anchor="middle" id="text_4">0.6</text></g><g id="xtick_5"><use x="333.576" xlink:href="#m6124718d2a" y="307.584" stroke="#000" stroke-width=".8" id="line2d_5"/><text x="333.576" y="322.182" font-family="DejaVu Sans" font-size="10" font-weight="400" text-anchor="middle" id="text_5">0.8</text></g><g id="xtick_6"><use x="398.52" xlink:href="#m6124718d2a" y="307.584" stroke="#000" stroke-width=".8" id="line2d_6"/><text x="398.52" y="322.182" font-family="DejaVu Sans" font-size="10" font-weight="400" text-anchor="middle" id="text_6">1.0</text></g><text x="236.16" y="335.861" font-family="DejaVu Sans" font-size="10" font-weight="400" text-anchor="middle" id="text_7">Input Coin&apos;s Heads Probability (λ)</text></g><g id="matplotlib.axis_2"><g id="ytick_1"><g id="line2d_7"><defs><path d="M0 0h-3.5" id="md89a8342ff" stroke="#000" stroke-width=".8"/></defs><use x="57.6" xlink:href="#md89a8342ff" y="295.488" stroke="#000" stroke-width=".8"/></g><text x="50.6" y="299.287" font-family="DejaVu Sans" font-size="10" font-weight="400" text-anchor="end" id="text_8">0.0</text></g><g id="ytick_2"><use x="57.6" xlink:href="#md89a8342ff" y="264.406" stroke="#000" stroke-width=".8" id="line2d_8"/><text x="50.6" y="268.205" font-family="DejaVu Sans" font-size="10" font-weight="400" text-anchor="end" id="text_9">0.1</text></g><g id="ytick_3"><use x="57.6" xlink:href="#md89a8342ff" y="233.324" stroke="#000" stroke-width=".8" id="line2d_9"/><text x="50.6" y="237.123" font-family="DejaVu Sans" font-size="10" font-weight="400" text-anchor="end" id="text_10">0.2</text></g><g id="ytick_4"><use x="57.6" xlink:href="#md89a8342ff" y="202.242" stroke="#000" stroke-width=".8" id="line2d_10"/><text x="50.6" y="206.041" font-family="DejaVu Sans" font-size="10" font-weight="400" text-anchor="end" id="text_11">0.3</text></g><g id="ytick_5"><use x="57.6" xlink:href="#md89a8342ff" y="171.16" stroke="#000" stroke-width=".8" id="line2d_11"/><text x="50.6" y="174.959" font-family="DejaVu Sans" font-size="10" font-weight="400" text-anchor="end" id="text_12">0.4</text></g><g id="ytick_6"><use x="57.6" xlink:href="#md89a8342ff" y="140.078" stroke="#000" stroke-width=".8" id="line2d_12"/><text x="50.6" y="143.877" font-family="DejaVu Sans" font-size="10" font-weight="400" text-anchor="end" id="text_13">0.5</text></g><g id="ytick_7"><use x="57.6" xlink:href="#md89a8342ff" y="108.996" stroke="#000" stroke-width=".8" id="line2d_13"/><text x="50.6" y="112.795" font-family="DejaVu Sans" font-size="10" font-weight="400" text-anchor="end" id="text_14">0.6</text></g><g id="ytick_8"><use x="57.6" xlink:href="#md89a8342ff" y="77.914" stroke="#000" stroke-width=".8" id="line2d_14"/><text x="50.6" y="81.713" font-family="DejaVu Sans" font-size="10" font-weight="400" text-anchor="end" id="text_15">0.7</text></g><g id="ytick_9"><use x="57.6" xlink:href="#md89a8342ff" y="46.832" stroke="#000" stroke-width=".8" id="line2d_15"/><text x="50.6" y="50.631" font-family="DejaVu Sans" font-size="10" font-weight="400" text-anchor="end" id="text_16">0.8</text></g><text transform="rotate(-90 28.617 174.528)" x="28.617" y="174.528" font-family="DejaVu Sans" font-size="10" font-weight="400" text-anchor="middle" id="text_17">Simulated Mean / Function Value</text></g><path clip-path="url(#p20fce76122)" d="M73.833 295.472l3.28-1.57 3.278-1.569 3.28-1.57 3.28-1.57 3.278-1.571 3.28-1.572 3.28-1.573 3.278-1.574 3.28-1.576 3.28-1.576 3.278-1.579 3.28-1.58 3.28-1.582 3.278-1.584 3.28-1.587 3.28-1.59 3.278-1.59 3.28-1.596 3.28-1.597 3.279-1.601 3.279-1.604 3.28-1.608 3.279-1.612 3.279-1.616 3.28-1.62 3.279-1.624 3.279-1.629 3.28-1.634 3.279-1.639 3.279-1.644 3.28-1.65 3.279-1.655 3.279-1.662 3.28-1.668 3.279-1.674 3.279-1.681 3.28-1.689 3.279-1.696 3.279-1.703 3.28-1.712 3.279-1.72 3.279-1.729 3.28-1.738 3.279-1.747 3.279-1.757 3.28-1.767 3.279-1.778 3.279-1.789 3.28-1.8 3.279-1.812 3.279-1.825 3.28-1.838 3.279-1.851 3.279-1.865 3.28-1.88 3.279-1.896 3.279-1.911 3.28-1.928 3.279-1.946 3.28-1.963 3.278-1.983 3.28-2.003 3.28-2.024 3.278-2.045 3.28-2.07 3.28-2.092 3.278-2.119 3.28-2.145 3.28-2.174 3.278-2.204 3.28-2.235 3.28-2.27 3.278-2.304 3.28-2.343 3.28-2.383 3.278-2.426 3.28-2.473 3.28-2.522 3.278-2.576 3.28-2.633 3.28-2.696 3.279-2.765 3.279-2.839 3.28-2.921 3.279-3.012 3.279-3.113 3.28-3.227 3.279-3.354 3.279-3.502 3.28-3.672 3.279-3.87 3.279-4.112 3.28-4.404 3.279-4.776 3.279-5.269 3.28-5.963 3.279-7.05 3.279-9.151 3.28-20.017" fill="none" stroke="#1f77b4" stroke-linecap="square" stroke-width="1.5" id="line2d_16"/><path clip-path="url(#p20fce76122)" d="M73.833 295.488l3.28-1.243 3.278-2.487 3.28.622 3.28-3.73h3.278l3.28 2.487 3.28-.622 3.278-13.055 3.28 3.73 3.28 1.244 3.278-1.244 3.28-6.838 3.28 1.243 3.278-4.351 3.28 1.865 3.28.622 3.278-8.703 3.28-3.109 3.28 4.974 3.279 3.73 3.279-8.082 3.28 1.243 3.279-2.486 3.279-1.865 3.28-14.298 3.279 9.325 3.279-4.973 3.28-2.487 3.279 4.351 3.279-6.216 3.28-.622 3.279-3.73h3.279l3.28 11.812 3.279-9.325 3.279.622 3.28-11.811 3.279 2.486 3.279 3.108 3.28-4.973 3.279-3.73 3.279-2.486 3.28 10.568 3.279-23.001 3.279 13.054 3.28-4.973 3.279 5.595 3.279-5.595 3.28.622 3.279-21.136 3.279 16.163 3.28-3.73 3.279-12.433 3.279-11.811 3.28 8.703 3.279 15.541 3.279-19.27 3.28 4.35 3.279-4.972 3.28-6.839 3.278 6.217 3.28-1.865 3.28-2.487 3.278 3.73 3.28-10.568 3.28-2.486 3.278 4.351 3.28-11.19 3.28-8.702 3.278 3.73 3.28 14.297 3.28-19.892 3.278 17.406 3.28-21.758 3.28 11.19 3.278-3.108 3.28-10.568 3.28-3.108 3.278-8.703 3.28 14.297 3.28-7.46 3.279-11.189 3.279-1.865 3.28 9.325 3.279-11.811 3.279-9.325 3.28 13.054 3.279-19.892 3.279 8.703 3.28-19.27 3.279 18.648 3.279-16.162 3.28-4.352 3.279-11.811 3.279-.622 3.28 1.244 3.279-8.082 3.279-16.784 3.28-16.163" fill="none" stroke="#ff7f0e" stroke-linecap="square" stroke-width="1.5" id="line2d_17"/><path d="M57.6 307.584V41.472" fill="none" stroke="#000" stroke-linecap="square" stroke-width=".8" id="patch_3"/><path d="M414.72 307.584V41.472" fill="none" stroke="#000" stroke-linecap="square" stroke-width=".8" id="patch_4"/><path d="M57.6 307.584h357.12" fill="none" stroke="#000" stroke-linecap="square" stroke-width=".8" id="patch_5"/><path d="M57.6 41.472h357.12" fill="none" stroke="#000" stroke-linecap="square" stroke-width=".8" id="patch_6"/><text x="236.16" y="35.472" font-family="DejaVu Sans" font-size="12" font-weight="400" text-anchor="middle" id="text_18">Expected Value in arcsin(x)/2 Algorithm</text><g id="legend_1"><path d="M64.6 78.828h182.244q2 0 2-2V48.472q0-2-2-2H64.6q-2 0-2 2v28.356q0 2 2 2z" fill="#fff" opacity=".8" stroke="#ccc" id="patch_7"/><path d="M66.6 54.57h20" fill="none" stroke="#1f77b4" stroke-linecap="square" stroke-width="1.5" id="line2d_18"/><text x="94.6" y="58.07" font-family="DejaVu Sans" font-size="10" font-weight="400" id="text_19">arcsin(x)/2</text><path d="M66.6 69.249h20" fill="none" stroke="#ff7f0e" stroke-linecap="square" stroke-width="1.5" id="line2d_20"/><text x="94.6" y="72.749" font-family="DejaVu Sans" font-size="10" font-weight="400" id="text_20">Simulated Mean of arcsin(x)/2</text></g></g></g><defs><clipPath id="p20fce76122"><path d="M57.6 41.472h357.12v266.112H57.6z"/></clipPath></defs></svg>
